packages/icons/src/SVG/copy.svg

<!-- Generated by IcoMoon.io -->
<svg version="1.1" xmlns="http://www.w3.org/2000/svg" width="12" height="12" viewBox="0 0 12 12">
<title>copy</title>
<path d="M4 0h4.707l2.293 2.293v6.707h-3v3h-7v-9h3v-3zM5 1v7h5v-4h-3v-3h-2zM8 1v2h2v-0.293l-1.707-1.707h-0.293zM2 4v7h5v-2h-3v-5h-2z"></path>
</svg>

<svg width="12" height="12" viewBox="0 0 12 12" >
<path fill-rule="evenodd" clip-rule="evenodd" d="M4 0H8.70711L11 2.29289V9H8V12H1V3H4V0ZM5 1V8H10V4H7V1H5ZM8 1V3H10V2.70711L8.29289 1H8ZM2 4H4V9H7V11H2V4Z" />
</svg>
